X:1
T:Red Apple Juice
M:4/4
L:1/8
K:C
 z4| z2 c/2 c3/2| c2 dd| c2 A3/2 G/2| A c2 A| D2- D z| D2 FF| Ac AF|\
 D2- D z|
M:4/4
 D2 FFG/2-F/2 AG F| D4 z4|
